src/packages/admin-ui/src/assets/24-database.svg

<?xml version="1.0" encoding="UTF-8"?>
<svg fill="none" viewBox="0 0 25 24" xmlns="http://www.w3.org/2000/svg">
<path d="m5 6.75c0-0.00794 3.9e-4 -0.03579 0.02924-0.09453 0.0315-0.06414 0.09803-0.16586 0.2307-0.29655 0.27389-0.26982 0.74717-0.58185 1.453-0.87596 1.4052-0.58547 3.4503-0.98296 5.787-0.98296s4.3819 0.39749 5.787 0.98296c0.7059 0.29411 1.1792 0.60614 1.4531 0.87596 0.1326 0.13069 0.1992 0.23241 0.2307 0.29655 0.0288 0.05874 0.0292 0.08659 0.0292 0.09453s-4e-4 0.03579-0.0292 0.09453c-0.0315 0.06414-0.0981 0.16586-0.2307 0.29655-0.2739 0.26982-0.7472 0.58185-1.4531 0.87596-1.4051 0.58547-3.4503 0.98296-5.787 0.98296s-4.3819-0.39749-5.787-0.98296c-0.70585-0.29411-1.1791-0.60614-1.453-0.87596-0.13267-0.13069-0.1992-0.23241-0.2307-0.29655-0.02885-0.05874-0.02924-0.08659-0.02924-0.09453zm-3 0c0-1.0403 0.51235-1.8956 1.1546-2.5282 0.63696-0.62748 1.4817-1.1235 2.4045-1.508 1.8522-0.77175 4.307-1.2137 6.9409-1.2137 2.6338 0 5.0887 0.44198 6.9409 1.2137 0.9228 0.38452 1.7676 0.88054 2.4045 1.508 0.6423 0.63267 1.1546 1.488 1.1546 2.5282v12c0 1.0403-0.5123 1.8956-1.1546 2.5283-0.6369 0.6274-1.4817 1.1235-2.4045 1.508-1.8522 0.7717-4.3071 1.2137-6.9409 1.2137-2.6338 0-5.0887-0.442-6.9409-1.2137-0.92283-0.3845-1.7676-0.8806-2.4045-1.508-0.64224-0.6327-1.1546-1.488-1.1546-2.5283v-12zm3 6.6185v-2.8342c0.1823 0.0889 0.36905 0.1728 0.55912 0.252 1.8522 0.7717 4.307 1.2137 6.9409 1.2137 2.6338 0 5.0887-0.442 6.9409-1.2137 0.19-0.0792 0.3768-0.1631 0.5591-0.252v2.8342c-0.0266 0.0283-0.0694 0.0688-0.1357 0.1211-0.2676 0.2109-0.7477 0.4664-1.4747 0.7087-1.4383 0.4794-3.5207 0.8017-5.8896 0.8017s-4.4513-0.3223-5.8896-0.8017c-0.72699-0.2423-1.2071-0.4978-1.4746-0.7087-0.06635-0.0523-0.10913-0.0928-0.13573-0.1211zm0 3.4333v1.9482c0 0.0079 3.9e-4 0.0358 0.02924 0.0945 0.0315 0.0642 0.09803 0.1659 0.2307 0.2966 0.27389 0.2698 0.74717 0.5818 1.453 0.8759 1.4052 0.5855 3.4503 0.983 5.787 0.983s4.3819-0.3975 5.787-0.983c0.7059-0.2941 1.1792-0.6061 1.4531-0.8759 0.1326-0.1307 0.1992-0.2324 0.2307-0.2966 0.0288-0.0587 0.0292-0.0866 0.0292-0.0945v-1.9482c-0.2152 0.0868-0.4365 0.1675-0.6617 0.2425-1.8191 0.6064-4.2367 0.9557-6.8383 0.9557-2.6016 0-5.0192-0.3493-6.8383-0.9557-0.22523-0.075-0.44647-0.1557-0.6617-0.2425z" clip-rule="evenodd" fill="#918C99" fill-rule="evenodd"/>
</svg>

<svg width="25" height="24" viewBox="0 0 25 24" fill="none" xmlns="http://www.w3.org/2000/svg">
<path fill-rule="evenodd" clip-rule="evenodd" d="M5 6.75C5 6.74206 5.00039 6.71421 5.02924 6.65547C5.06074 6.59133 5.12727 6.48961 5.25994 6.35892C5.53383 6.0891 6.00711 5.77707 6.71296 5.48296C8.11811 4.89749 10.1633 4.5 12.5 4.5C14.8367 4.5 16.8819 4.89749 18.287 5.48296C18.9929 5.77707 19.4662 6.0891 19.7401 6.35892C19.8727 6.48961 19.9393 6.59133 19.9708 6.65547C19.9996 6.71421 20 6.74206 20 6.75C20 6.75794 19.9996 6.78579 19.9708 6.84453C19.9393 6.90867 19.8727 7.01039 19.7401 7.14108C19.4662 7.4109 18.9929 7.72293 18.287 8.01704C16.8819 8.60251 14.8367 9 12.5 9C10.1633 9 8.11811 8.60251 6.71296 8.01704C6.00711 7.72293 5.53383 7.4109 5.25994 7.14108C5.12727 7.01039 5.06074 6.90867 5.02924 6.84453C5.00039 6.78579 5 6.75794 5 6.75ZM2 6.75C2 5.7097 2.51235 4.85442 3.15459 4.22175C3.79155 3.59427 4.63629 3.09825 5.55912 2.71373C7.41133 1.94198 9.86617 1.5 12.5 1.5C15.1338 1.5 17.5887 1.94198 19.4409 2.71373C20.3637 3.09825 21.2085 3.59427 21.8454 4.22175C22.4877 4.85442 23 5.7097 23 6.75V13.5V18.75C23 19.7903 22.4877 20.6456 21.8454 21.2783C21.2085 21.9057 20.3637 22.4018 19.4409 22.7863C17.5887 23.558 15.1338 24 12.5 24C9.86617 24 7.41133 23.558 5.55912 22.7863C4.63629 22.4018 3.79155 21.9057 3.15459 21.2783C2.51235 20.6456 2 19.7903 2 18.75V13.5V6.75ZM5 13.3685V10.5343C5.1823 10.6232 5.36905 10.7071 5.55912 10.7863C7.41133 11.558 9.86617 12 12.5 12C15.1338 12 17.5887 11.558 19.4409 10.7863C19.6309 10.7071 19.8177 10.6232 20 10.5343V13.3685C19.9734 13.3968 19.9306 13.4373 19.8643 13.4896C19.5967 13.7005 19.1166 13.956 18.3896 14.1983C16.9513 14.6777 14.8689 15 12.5 15C10.1311 15 8.04868 14.6777 6.61038 14.1983C5.88339 13.956 5.40328 13.7005 5.13573 13.4896C5.06938 13.4373 5.0266 13.3968 5 13.3685ZM5 16.8018V18.75C5 18.7579 5.00039 18.7858 5.02924 18.8445C5.06074 18.9087 5.12727 19.0104 5.25994 19.1411C5.53383 19.4109 6.00711 19.7229 6.71296 20.017C8.11811 20.6025 10.1633 21 12.5 21C14.8367 21 16.8819 20.6025 18.287 20.017C18.9929 19.7229 19.4662 19.4109 19.7401 19.1411C19.8727 19.0104 19.9393 18.9087 19.9708 18.8445C19.9996 18.7858 20 18.7579 20 18.75V16.8018C19.7848 16.8886 19.5635 16.9693 19.3383 17.0443C17.5192 17.6507 15.1016 18 12.5 18C9.89836 18 7.48076 17.6507 5.6617 17.0443C5.43647 16.9693 5.21523 16.8886 5 16.8018Z" fill="#918C99"/>
</svg>
